X:2599
T:Hit and Miss to the Tune of Daphne     %Tune name
Q:1/4=100     %Tempo
O:England
M:6/8     %Meter
L:1/8     %
K:G
E |"Em"G2 A B2 e |"Bm"d3/2e/f "Em"e2 B/c/ |"G"dBG "D"AFD |1"C"EGF "Em"E2 :|2"C(Am)"EGF "Em"E3 ::"Em(G)"g2 g "Bm(D)"f2 f |
"C"e3/2f/e "G"d B2 |d3/2c/B "C"A2 G |"D"G F2 "G"G3 :|"G"dde dBG |de/f/g "D"afd |
"Em"B3/2A/G "Bm"F2 E |"Am"eed "Em"eBB |"G"d3/2c/B "C"AEG |"Bm"F3/2G/F "Em"E2 |]


